X:58 
T:Reel de Gaspe  
C:Trad. Quebecois 
I:Violon,accordeon,harmonica 
Q:1/4=193    
M:C|     
L:1/8   
K:D
"D"f2 ef e2 dB |AF A2 B2 A2 |"A7"g2 fg fecA |1BABc ~B2 A2 :|2
"A7"B2 c2 "D"d4 ::"A7"e2 f2 g2 fe |"D"f2 g2 a4 |"A7"e2 f2 gecA |1
"(G)"BABc "A7"~B2 A2 :|2"A7"B2 c2 "D"d4 :|
